X: 31349
T: Paddy Mop The Floor
R: polka
M: 2/4
K: Dmajor
DF Ad|f/e/d BA|F/G/A df|e2 z2|
DF Ad|f/e/d BA|F/G/A de|d2 z2:|
fa ge|f/e/d BA|F/G/A df|e2 z2|
fa ge|f/e/d BA|F/G/A de|d2 z2:|

